public/svgs/value/title3.svg

<svg xmlns="http://www.w3.org/2000/svg" width="1788" height="698" fill="none" viewBox="0 0 1788 698"><path fill="#000" d="M14.28 131V15.08h20.496v97.272h52.416V131zm89.539-27.384V42.464q0-27.384 27.384-27.384h38.472q27.384 0 27.384 27.384v61.152q0 27.384-27.384 27.384h-38.472q-27.384 0-27.384-27.384m20.496 1.512q0 7.224 7.392 7.224h37.464q7.392 0 7.392-7.224V40.952q0-7.224-7.392-7.224h-37.464q-7.392 0-7.392 7.224zM223.952 131V15.08h22.344l51.408 82.656V15.08H318.2V131h-22.176l-51.576-82.656V131zm121.203-27.384V42.464q0-27.384 27.384-27.384h49.224l9.912 7.728v10.92h-58.632q-7.392 0-7.392 7.224v64.176q0 7.224 7.392 7.224h41.496V80.264h-24.528V61.616h45.024V131h-62.496q-27.384 0-27.384-27.384M460.202 131V15.08h77.952v18.648h-57.456v27.888h52.416v18.648h-52.416v32.088h57.456V131zm89.482-111.888 2.688-4.032h17.808l28.728 97.272h3.192l28.728-97.272h17.976l2.52 4.032L617.052 131h-33.264zM668.725 131V15.08h20.496V131zm38.807-97.272V15.08h93.576v18.648h-36.456V131h-20.664V33.728zm100.879-14.616 2.52-4.032h17.472l27.384 52.584 27.552-52.584h17.64l2.352 4.032-37.128 70.224V131h-20.664V89.336zM961.085 131V15.08h54.095c18.26 0 27.38 9.128 27.38 27.384v10.584q0 5.712-3.36 9.744l-5.88 7.056 7.06 5.88c3.7 3.024 5.54 7.504 5.54 13.44v14.448c0 18.256-9.12 27.384-27.38 27.384zm20.496-18.648h36.459c4.92 0 7.39-2.408 7.39-7.224v-17.64c0-4.816-2.47-7.224-7.39-7.224h-36.459zm0-50.736h33.099c4.92 0 7.39-2.464 7.39-7.392V40.952c0-4.816-2.47-7.224-7.39-7.224h-33.099zM1070.19 131V15.08h20.49V131zm47.37-27.384V42.464c0-18.256 9.13-27.384 27.38-27.384h38.48c18.25 0 27.38 9.128 27.38 27.384v61.152c0 18.256-9.13 27.384-27.38 27.384h-38.48c-18.25 0-27.38-9.128-27.38-27.384m20.5 1.512c0 4.816 2.46 7.224 7.39 7.224h37.46c4.93 0 7.39-2.408 7.39-7.224V40.952c0-4.816-2.46-7.224-7.39-7.224h-37.46c-4.93 0-7.39 2.408-7.39 7.224zm89.39-71.4V15.08h93.57v18.648h-36.45V131h-20.67V33.728zM1339.41 131V15.08h77.95v18.648h-57.45v27.888h52.41v18.648h-52.41v32.088h57.45V131zm98.89-27.384V42.464q0-27.384 27.39-27.384h45.69l9.92 7.728v10.92h-55.11c-4.93 0-7.39 2.408-7.39 7.224v64.176c0 4.816 2.46 7.224 7.39 7.224h55.11v10.92l-9.92 7.728h-45.69q-27.39 0-27.39-27.384M1544 131V15.08h20.49v46.536h48.89V15.08h20.5V131h-20.5V80.264h-48.89V131zM14.28 295V179.08h20.496V295zm44.015-7.728v-10.92h51.912q7.392 0 7.392-7.224V256.36q0-6.384-5.712-7.56l-34.104-6.888q-19.488-3.864-19.488-26.208v-9.24q0-27.384 27.384-27.384h39.144l9.912 7.728v10.92H86.183q-7.392 0-7.392 7.224v11.256q0 6.384 5.712 7.56l34.104 6.72q19.488 4.032 19.488 26.208v10.92q0 27.384-27.384 27.384H68.207zm132.585 3.696 35.784-111.888h31.92L294.2 290.968 291.68 295h-17.304l-7.896-25.536H218.6L210.536 295h-16.968zm33.432-40.152h36.624l-16.8-53.088h-3.192zM14.28 459V343.08h25.2l34.776 74.256 34.776-74.256h25.2V459h-20.664v-80.976l-30.576 65.184h-17.64l-30.576-65.184V459zm146.797-27.384v-61.152q0-27.384 27.384-27.384h38.472q27.384 0 27.384 27.384v61.152q0 27.384-27.384 27.384h-38.472q-27.384 0-27.384-27.384m20.496 1.512q0 7.224 7.392 7.224h37.464q7.392 0 7.392-7.224v-64.176q0-7.224-7.392-7.224h-37.464q-7.392 0-7.392 7.224zM281.21 459V343.08h55.776q27.384 0 27.384 27.384v18.984q0 21.168-16.8 25.704l20.16 39.48-2.52 4.368h-17.472l-21.504-42.336h-24.528V459zm20.496-60.984h34.776q7.392 0 7.392-7.392v-21.672q0-7.224-7.392-7.224h-34.776zm76.697 56.952 35.784-111.888h31.92l35.616 111.888-2.52 4.032h-17.304l-7.896-25.536h-47.88L398.059 459h-16.968zm33.432-40.152h36.624l-16.8-53.088h-3.192zM499.249 459V343.08h20.496v97.272h52.416V459z"/><path fill="#bb1212" d="M17 666V528h24.4v138zm58.398 0V528h30l41.4 88.4 41.4-88.4h30v138h-24.6v-96.4l-36.4 77.6h-21l-36.4-77.6V666zm176.758 0V528h66.4q32.6 0 32.6 32.6v26.6q0 32.4-32.6 32.4h-42V666zm24.4-68.6h41.4q8.8 0 8.8-8.8v-29.8q0-8.6-8.8-8.6h-41.4zM379.109 666V528h92.8v22.2h-68.4v33.2h62.4v22.2h-62.4v38.2h68.4V666zm119.727 0V528h66.4q32.6 0 32.6 32.6v22.6q0 25.2-20 30.6l24 47-3 5.2h-20.8l-25.6-50.4h-29.2V666zm24.4-72.6h41.4q8.8 0 8.8-8.8v-25.8q0-8.6-8.8-8.6h-41.4zm91.306 67.8 42.6-133.2h38l42.4 133.2-3 4.8h-20.6l-9.4-30.4h-57l-9.6 30.4h-20.2zm39.8-47.8h43.6l-20-63.2h-3.8zm81.903-63.2V528h111.4v22.2h-43.4V666h-24.6V550.2zM869.539 666V528h24.4v138zm45.199-133.2 3.2-4.8h21.2l34.2 115.8h3.8L1011.34 528h21.4l3 4.8L994.938 666h-39.6zM1056.45 666V528h92.8v22.2h-68.4v33.2h62.4v22.2h-62.4v38.2h68.4V666z"/></svg>

<svg width="1788" height="698" viewBox="0 0 1788 698" fill="none" xmlns="http://www.w3.org/2000/svg">
<path d="M14.28 131V15.08H34.776V112.352H87.192V131H14.28ZM103.819 103.616V42.464C103.819 24.208 112.947 15.08 131.203 15.08H169.675C187.931 15.08 197.059 24.208 197.059 42.464V103.616C197.059 121.872 187.931 131 169.675 131H131.203C112.947 131 103.819 121.872 103.819 103.616ZM124.315 105.128C124.315 109.944 126.779 112.352 131.707 112.352H169.171C174.099 112.352 176.563 109.944 176.563 105.128V40.952C176.563 36.136 174.099 33.728 169.171 33.728H131.707C126.779 33.728 124.315 36.136 124.315 40.952V105.128ZM223.952 131V15.08H246.296L297.704 97.736V15.08H318.2V131H296.024L244.448 48.344V131H223.952ZM345.155 103.616V42.464C345.155 24.208 354.283 15.08 372.539 15.08H421.763L431.675 22.808V33.728H373.043C368.115 33.728 365.651 36.136 365.651 40.952V105.128C365.651 109.944 368.115 112.352 373.043 112.352H414.539V80.264H390.011V61.616H435.035V131H372.539C354.283 131 345.155 121.872 345.155 103.616ZM460.202 131V15.08H538.154V33.728H480.698V61.616H533.114V80.264H480.698V112.352H538.154V131H460.202ZM549.684 19.112L552.372 15.08H570.18L598.908 112.352H602.1L630.828 15.08H648.804L651.324 19.112L617.052 131H583.788L549.684 19.112ZM668.725 131V15.08H689.221V131H668.725ZM707.532 33.728V15.08H801.108V33.728H764.652V131H743.988V33.728H707.532ZM808.411 19.112L810.931 15.08H828.403L855.787 67.664L883.339 15.08H900.979L903.331 19.112L866.203 89.336V131H845.539V89.336L808.411 19.112ZM961.085 131V15.08H1015.18C1033.44 15.08 1042.56 24.208 1042.56 42.464V53.048C1042.56 56.856 1041.44 60.104 1039.2 62.792L1033.32 69.848L1040.38 75.728C1044.08 78.752 1045.92 83.232 1045.92 89.168V103.616C1045.92 121.872 1036.8 131 1018.54 131H961.085ZM981.581 112.352H1018.04C1022.96 112.352 1025.43 109.944 1025.43 105.128V87.488C1025.43 82.672 1022.96 80.264 1018.04 80.264H981.581V112.352ZM981.581 61.616H1014.68C1019.6 61.616 1022.07 59.152 1022.07 54.224V40.952C1022.07 36.136 1019.6 33.728 1014.68 33.728H981.581V61.616ZM1070.19 131V15.08H1090.68V131H1070.19ZM1117.56 103.616V42.464C1117.56 24.208 1126.69 15.08 1144.94 15.08H1183.42C1201.67 15.08 1210.8 24.208 1210.8 42.464V103.616C1210.8 121.872 1201.67 131 1183.42 131H1144.94C1126.69 131 1117.56 121.872 1117.56 103.616ZM1138.06 105.128C1138.06 109.944 1140.52 112.352 1145.45 112.352H1182.91C1187.84 112.352 1190.3 109.944 1190.3 105.128V40.952C1190.3 36.136 1187.84 33.728 1182.91 33.728H1145.45C1140.52 33.728 1138.06 36.136 1138.06 40.952V105.128ZM1227.45 33.728V15.08H1321.02V33.728H1284.57V131H1263.9V33.728H1227.45ZM1339.41 131V15.08H1417.36V33.728H1359.91V61.616H1412.32V80.264H1359.91V112.352H1417.36V131H1339.41ZM1438.3 103.616V42.464C1438.3 24.208 1447.43 15.08 1465.69 15.08H1511.38L1521.3 22.808V33.728H1466.19C1461.26 33.728 1458.8 36.136 1458.8 40.952V105.128C1458.8 109.944 1461.26 112.352 1466.19 112.352H1521.3V123.272L1511.38 131H1465.69C1447.43 131 1438.3 121.872 1438.3 103.616ZM1544 131V15.08H1564.49V61.616H1613.38V15.08H1633.88V131H1613.38V80.264H1564.49V131H1544ZM14.28 295V179.08H34.776V295H14.28ZM58.2947 287.272V276.352H110.207C115.135 276.352 117.599 273.944 117.599 269.128V256.36C117.599 252.104 115.695 249.584 111.887 248.8L77.7827 241.912C64.7907 239.336 58.2947 230.6 58.2947 215.704V206.464C58.2947 188.208 67.4227 179.08 85.6787 179.08H124.823L134.735 186.808V197.728H86.1827C81.2547 197.728 78.7907 200.136 78.7907 204.952V216.208C78.7907 220.464 80.6947 222.984 84.5027 223.768L118.607 230.488C131.599 233.176 138.095 241.912 138.095 256.696V267.616C138.095 285.872 128.967 295 110.711 295H68.2067L58.2947 287.272ZM190.88 290.968L226.664 179.08H258.584L294.2 290.968L291.68 295H274.376L266.48 269.464H218.6L210.536 295H193.568L190.88 290.968ZM224.312 250.816H260.936L244.136 197.728H240.944L224.312 250.816ZM14.28 459V343.08H39.48L74.256 417.336L109.032 343.08H134.232V459H113.568V378.024L82.992 443.208H65.352L34.776 378.024V459H14.28ZM161.077 431.616V370.464C161.077 352.208 170.205 343.08 188.461 343.08H226.933C245.189 343.08 254.317 352.208 254.317 370.464V431.616C254.317 449.872 245.189 459 226.933 459H188.461C170.205 459 161.077 449.872 161.077 431.616ZM181.573 433.128C181.573 437.944 184.037 440.352 188.965 440.352H226.429C231.357 440.352 233.821 437.944 233.821 433.128V368.952C233.821 364.136 231.357 361.728 226.429 361.728H188.965C184.037 361.728 181.573 364.136 181.573 368.952V433.128ZM281.21 459V343.08H336.986C355.242 343.08 364.37 352.208 364.37 370.464V389.448C364.37 403.56 358.77 412.128 347.57 415.152L367.73 454.632L365.21 459H347.738L326.234 416.664H301.706V459H281.21ZM301.706 398.016H336.482C341.41 398.016 343.874 395.552 343.874 390.624V368.952C343.874 364.136 341.41 361.728 336.482 361.728H301.706V398.016ZM378.403 454.968L414.187 343.08H446.107L481.723 454.968L479.203 459H461.899L454.003 433.464H406.123L398.059 459H381.091L378.403 454.968ZM411.835 414.816H448.459L431.659 361.728H428.467L411.835 414.816ZM499.249 459V343.08H519.745V440.352H572.161V459H499.249Z" fill="black"/>
<path d="M17 666V528H41.4V666H17ZM75.3984 666V528H105.398L146.798 616.4L188.198 528H218.198V666H193.598V569.6L157.198 647.2H136.198L99.7984 569.6V666H75.3984ZM252.156 666V528H318.556C340.29 528 351.156 538.867 351.156 560.6V587.2C351.156 608.8 340.29 619.6 318.556 619.6H276.556V666H252.156ZM276.556 597.4H317.956C323.823 597.4 326.756 594.467 326.756 588.6V558.8C326.756 553.067 323.823 550.2 317.956 550.2H276.556V597.4ZM379.109 666V528H471.909V550.2H403.509V583.4H465.909V605.6H403.509V643.8H471.909V666H379.109ZM498.836 666V528H565.236C586.969 528 597.836 538.867 597.836 560.6V583.2C597.836 600 591.169 610.2 577.836 613.8L601.836 660.8L598.836 666H578.036L552.436 615.6H523.236V666H498.836ZM523.236 593.4H564.636C570.503 593.4 573.436 590.467 573.436 584.6V558.8C573.436 553.067 570.503 550.2 564.636 550.2H523.236V593.4ZM614.542 661.2L657.142 528H695.142L737.542 661.2L734.542 666H713.942L704.542 635.6H647.542L637.942 666H617.742L614.542 661.2ZM654.342 613.4H697.942L677.942 550.2H674.142L654.342 613.4ZM736.245 550.2V528H847.645V550.2H804.245V666H779.645V550.2H736.245ZM869.539 666V528H893.939V666H869.539ZM914.738 532.8L917.938 528H939.138L973.338 643.8H977.138L1011.34 528H1032.74L1035.74 532.8L994.938 666H955.338L914.738 532.8ZM1056.45 666V528H1149.25V550.2H1080.85V583.4H1143.25V605.6H1080.85V643.8H1149.25V666H1056.45Z" fill="#BB1212"/>
</svg>
